T: Parting Glass, The
M: 4/4
L: 1/8
K: Amin
GEFD ~E3 F | ~G3 B ~A2 GA | B ~e3 edBA |1 G ~E3 (3DED :|(3dcd Bd ~e2 (3Bcd  | edBG ~A2 Bc | d ~B3 edBA | GEFE D2 BA |~G2 FD ~E3 F | GFGB (3ABA GA | Be (3def edBA | GE (3FED E2 ||
